svg/generic_sorting_2.svg

<svg xmlns="http://www.w3.org/2000/svg" viewBox="0 0 32 32" enable-background="new 0 0 32 32"><path d="M 4 5 L 4 7 L 6 7 L 6 5 L 4 5 z M 21 5 L 21 23.6875 L 18.40625 21.09375 L 17 22.5 L 21.28125 26.8125 L 22 27.5 L 22.71875 26.8125 L 27 22.5 L 25.59375 21.09375 L 23 23.6875 L 23 5 L 21 5 z M 4 9 L 4 11 L 8 11 L 8 9 L 4 9 z M 4 13 L 4 15 L 10 15 L 10 13 L 4 13 z M 4 17 L 4 19 L 12 19 L 12 17 L 4 17 z M 4 21 L 4 23 L 14 23 L 14 21 L 4 21 z M 4 25 L 4 27 L 16 27 L 16 25 L 4 25 z"/></svg>

<svg xmlns="http://www.w3.org/2000/svg" viewBox="0 0 32 32"><path d="M4 5v2h2V5H4zm17 0v18.688l-2.594-2.594L17 22.5l4.28 4.313.72.687.72-.688L27 22.5l-1.406-1.406L23 23.687V5h-2zM4 9v2h4V9H4zm0 4v2h6v-2H4zm0 4v2h8v-2H4zm0 4v2h10v-2H4zm0 4v2h12v-2H4z"/></svg>
